X: 1
T: the Old Bush
C: trad.
O: Ireland
R: reel
S: Fiddle Hell Online 2021-11-6 Marla Fibish Musicality Workshop
Z: 2022 John Chambers <jc:trillian.mit.edu>
M: 4/4
L: 1/8
K: Ador
|:\
AAGA cAA2 | d^cde fde=c | A2GA cAA2 | dfed cAd^c |
AAGA cAA2 | d^cde f2fg | afge fde^c | dfed [1 cAd^c :|2 cAA2 ||
|:\
eggg edcd | egge c3d | eggg a2ge | dfed cAA2 |
eggg a2ge | fgfe defg | a2ge fde^c | dfed [1 cAA2 :|2 cAd^c |]
